X: 2305
M: 2/4
L: 1/16
K: G
((3udef) |\
"^>"[g2B2]"^>"[g2B2] z2vGA | BdcA BdcA |\
"^>"[g2B2]"^>"[g2B2] z2 GA | cABG AFED |\
"^>"[g2B2]"^>"[g2B2] z2 GA | BdcA BdcB |\
agfa gedc | BGAF G2 H:|
|: B2 |\
"^>"[e2B2]"^>"[e2B2] z2u[f2A2] | "^>"[g2B2]"^>"[g2B2] z2[a2c2] |\
[b^d]abc' babc' | [b4^d4] "_D.C."z2 :|


